icons/svg/remote-desktop-control_16.svg

<svg width="16" height="16" viewBox="0 0 16 16" fill="none" xmlns="http://www.w3.org/2000/svg">
<path fill-rule="evenodd" clip-rule="evenodd" d="M14.368 1H1.632C0.732 1 0 1.733 0 2.633V10.868C0 11.768 0.732 12.5 1.632 12.5H6.34C6.34 12.501 6.339 12.501 6.339 12.502L6.346 13.189C6.344 13.38 6.289 14 5.692 14C5.416 14 5.192 14.224 5.192 14.5C5.192 14.777 5.416 15 5.692 15H10.308C10.584 15 10.808 14.777 10.808 14.5C10.808 14.224 10.584 14 10.308 14C9.711 14 9.656 13.38 9.654 13.188L9.647 12.5H14.368C15.268 12.5 16 11.768 16 10.868V2.633C16 1.733 15.268 1 14.368 1ZM8.654 13.193C8.654 13.44 8.705 13.728 8.82 14H7.18C7.295 13.726 7.346 13.437 7.346 13.188L7.339 12.5H8.647C8.647 12.501 8.647 12.501 8.647 12.502L8.654 13.193ZM15 10.868C15 11.217 14.716 11.5 14.368 11.5H1.632C1.284 11.5 1 11.217 1 10.868V2.633C1 2.284 1.284 2 1.632 2H14.368C14.716 2 15 2.284 15 2.633V10.868ZM9.9273 3.4121C9.7763 3.2781 9.4943 3.2371 9.3123 3.3271C9.1393 3.4111 9.0033 3.6361 9.0003 3.8321L9.0073 8.3821C9.0073 8.6021 9.1193 8.8021 9.3063 8.9171C9.4073 8.9791 9.5203 9.0111 9.6343 9.0111C9.7313 9.0111 9.8273 8.9881 9.9173 8.9431L10.9913 8.4021L11.7553 9.7471C11.8473 9.9091 12.0163 10.0001 12.1903 10.0001C12.2743 10.0001 12.3593 9.9791 12.4373 9.9351C12.6773 9.7991 12.7613 9.4931 12.6243 9.2531L11.8853 7.9511L12.8613 7.4601C13.0413 7.3681 13.1673 7.1951 13.1983 6.9951C13.2293 6.7961 13.1623 6.5921 13.0183 6.4511L9.9273 3.4121ZM10.0063 7.7781L10.0013 4.8871L11.9473 6.8001L10.0063 7.7781Z" fill="#121212"/>
</svg>

<?xml version="1.0" encoding="utf-8"?>
<!-- Generator: Adobe Illustrator 23.0.2, SVG Export Plug-In . SVG Version: 6.00 Build 0)  -->
<svg version="1.1" id="Layer_1" xmlns="http://www.w3.org/2000/svg" xmlns:xlink="http://www.w3.org/1999/xlink" x="0px" y="0px"
	 viewBox="0 0 16 16" style="enable-background:new 0 0 16 16;" xml:space="preserve">
<style type="text/css">
	.st0{fill-rule:evenodd;clip-rule:evenodd;fill:#121212;}
</style>
<g>
	<path class="st0" d="M14.4,1H1.6C0.7,1,0,1.7,0,2.6v8.2c0,0.9,0.7,1.6,1.6,1.6h4.7c0,0,0,0,0,0l0,0.7c0,0.2-0.1,0.8-0.7,0.8
		c-0.3,0-0.5,0.2-0.5,0.5c0,0.3,0.2,0.5,0.5,0.5h4.6c0.3,0,0.5-0.2,0.5-0.5c0-0.3-0.2-0.5-0.5-0.5c-0.6,0-0.7-0.6-0.7-0.8l0-0.7h4.7
		c0.9,0,1.6-0.7,1.6-1.6V2.6C16,1.7,15.3,1,14.4,1z M7.2,14c0.1-0.3,0.2-0.6,0.2-0.8l0-0.7h1.3c0,0,0,0,0,0l0,0.7
		c0,0.2,0.1,0.5,0.2,0.8H7.2z M15,10.9c0,0.3-0.3,0.6-0.6,0.6H1.6c-0.3,0-0.6-0.3-0.6-0.6V2.6C1,2.3,1.3,2,1.6,2h12.7
		C14.7,2,15,2.3,15,2.6V10.9z"/>
	<path class="st0" d="M9.9,3.4C9.8,3.3,9.5,3.2,9.3,3.3C9.1,3.4,9,3.6,9,3.8l0,4.5c0,0.2,0.1,0.4,0.3,0.5C9.4,9,9.5,9,9.6,9
		c0.1,0,0.2,0,0.3-0.1L11,8.4l0.8,1.3C11.8,9.9,12,10,12.2,10c0.1,0,0.2,0,0.2-0.1c0.2-0.1,0.3-0.4,0.2-0.7L11.9,8l1-0.5
		C13,7.4,13.2,7.2,13.2,7c0-0.2,0-0.4-0.2-0.5L9.9,3.4z M10,7.8l0-2.9l1.9,1.9L10,7.8z"/>
</g>
</svg>
